X: 36644
T: Shannandoah Falls
R: hornpipe
M: 4/4
K: Amajor
cd|:e2ef edcB|AB (3cBA d2d2|c2c2 BAGA|BAGF E4|
e2ef edcB|AB (3cBA d2d2|cBA2 BAG2|1 A4 A2 B/c/d:|2 A4 F2E2||
|:F4 B4|FB2F B2F2|ABcA BcAB|cABc cBA2|
F4 B4|FB2F B2ed|cBA2 BAG2|1 A4 F2E2:|2 A4 A2 B/c/d||

